X:12
T:Bush Aboon Traquair, The
C:arr. Carlo Minasi
M:C
L:1/8
B:Chappell's One Hundred Scotch Melodies
B:Arranged for the Concertina by Carlo Minasi
Q:"Andante  "1/4=100
Z:Peter Dunk 2012
K:C
!p!(C>D)| ([EC][GE] [c3E3] e)|([dFG,]>c d/e/f/d/) [d2F2G,2] zD|\
([E2C2][G2E2]) (e>dcA)|([G4E4] C2) (C>D)|
([E2C2][G2E2] [c3E3] e)|([dFG,]>c d/e/f/d/) [d2F2G,2] zD|\
([E2C2][G2E2]) (e>dcA)|([G4E4] C2)||
c2|(B>AGA) (Bcde)|(fgef) d2 zG|\
([cE]>[dG][ec][fd]) ([g3e3] G)|(e>f g/f/e/d/ c2) zc|
(B>AGA) (Bcde)|"_rall."(f>g a/g/f/e/ d2) z "_a tempo."[DB,]|\
([E2C2][G2E2]) ([ec]>[dB][cA][AF])|([G4E4] C2)||

